Simply-Red-Circles/scalable/apps/braindump.svg

<svg xmlns="http://www.w3.org/2000/svg" width="48" height="48" viewBox="0 0 12.7 12.7"><path d="M6.34.07a6.29 6.29 0 0 0-6.29 6.3 6.29 6.29 0 0 0 6.3 6.28 6.29 6.29 0 0 0 6.28-6.29A6.29 6.29 0 0 0 6.34.07zm-.01.94a5.4 5.4 0 0 1 5.4 5.4 5.4 5.4 0 0 1-5.4 5.41 5.4 5.4 0 0 1-5.41-5.4A5.4 5.4 0 0 1 6.32 1zm.02.98a3 3 0 0 0-3 3c0 1.19.6 1.89 1.2 2.44s.3 1.45.6 1.75l.3.3v.24l-.15.04a.15.15 0 0 0 .08.29l.07-.02v.29l-.15.04a.15.15 0 1 0 .07.29l.27-.07.11.1v.3h1.2v-.3l.3-.3v-.23l.15-.04a.15.15 0 1 0-.08-.3l-.07.03v-.3l.15-.03c.08-.03.13-.1.1-.19a.15.15 0 0 0-.03-.06l.08-.08c.3-.3 0-1.2.6-1.75.6-.56 1.2-1.26 1.2-2.45a3 3 0 0 0-3-3zm.01.4c1.44 0 2.6 1.2 2.6 2.66 0 1.06-.52 1.68-1.04 2.17-.52.5-.26 1.29-.52 1.56H5.33c-.26-.27 0-1.07-.52-1.56a2.82 2.82 0 0 1-1.04-2.17 2.63 2.63 0 0 1 2.6-2.66zm.29.8l-1.5 2.4h.9v1.8l1.5-2.4h-.9v-1.8z" fill="#a02c2c"/></svg>

<?xml version="1.0" encoding="UTF-8" standalone="no"?>
<svg
   xmlns:dc="http://purl.org/dc/elements/1.1/"
   xmlns:cc="http://creativecommons.org/ns#"
   xmlns:rdf="http://www.w3.org/1999/02/22-rdf-syntax-ns#"
   xmlns:svg="http://www.w3.org/2000/svg"
   xmlns="http://www.w3.org/2000/svg"
   xmlns:sodipodi="http://sodipodi.sourceforge.net/DTD/sodipodi-0.dtd"
   xmlns:inkscape="http://www.inkscape.org/namespaces/inkscape"
   width="48"
   height="48"
   viewBox="0 0 12.7 12.7"
   version="1.1"
   id="svg4"
   sodipodi:docname="braindump.svg"
   inkscape:version="0.92.4 (5da689c313, 2019-01-14)">
  <metadata
     id="metadata10">
    <rdf:RDF>
      <cc:Work
         rdf:about="">
        <dc:format>image/svg+xml</dc:format>
        <dc:type
           rdf:resource="http://purl.org/dc/dcmitype/StillImage" />
        <dc:title></dc:title>
      </cc:Work>
    </rdf:RDF>
  </metadata>
  <defs
     id="defs8" />
  <sodipodi:namedview
     pagecolor="#ffffff"
     bordercolor="#666666"
     borderopacity="1"
     objecttolerance="10"
     gridtolerance="10"
     guidetolerance="10"
     inkscape:pageopacity="0"
     inkscape:pageshadow="2"
     inkscape:window-width="1087"
     inkscape:window-height="480"
     id="namedview6"
     showgrid="false"
     inkscape:zoom="4.9166667"
     inkscape:cx="2.1355932"
     inkscape:cy="24"
     inkscape:window-x="0"
     inkscape:window-y="25"
     inkscape:window-maximized="0"
     inkscape:current-layer="svg4" />
  <path
     d="M 6.34,0.07 A 6.29,6.29 0 0 0 0.05,6.37 6.29,6.29 0 0 0 6.35,12.65 6.29,6.29 0 0 0 12.63,6.36 6.29,6.29 0 0 0 6.34,0.07 Z M 6.33,1.01 a 5.4,5.4 0 0 1 5.4,5.4 5.4,5.4 0 0 1 -5.4,5.41 A 5.4,5.4 0 0 1 0.92,6.42 5.4,5.4 0 0 1 6.32,1 Z m 0.02,0.98 a 3,3 0 0 0 -3,3 c 0,1.19 0.6,1.89 1.2,2.44 0.6,0.55 0.3,1.45 0.6,1.75 l 0.3,0.3 V 9.72 L 5.3,9.76 a 0.15041609,0.15041609 0 0 0 0.08,0.29 l 0.07,-0.02 v 0.29 L 5.3,10.36 a 0.15,0.15 0 1 0 0.07,0.29 l 0.27,-0.07 0.11,0.1 v 0.3 h 1.2 v -0.3 l 0.3,-0.3 V 10.15 L 7.4,10.11 A 0.15524175,0.15524175 0 1 0 7.32,9.81 L 7.25,9.84 V 9.54 L 7.4,9.51 C 7.48,9.48 7.53,9.41 7.5,9.32 A 0.15,0.15 0 0 0 7.47,9.26 L 7.55,9.18 c 0.3,-0.3 0,-1.2 0.6,-1.75 0.6,-0.56 1.2,-1.26 1.2,-2.45 a 3,3 0 0 0 -3,-3 z m 0.01,0.4 c 1.44,0 2.6,1.2 2.6,2.66 0,1.06 -0.52,1.68 -1.04,2.17 C 7.4,7.72 7.66,8.51 7.4,8.78 H 5.33 C 5.07,8.51 5.33,7.71 4.81,7.22 A 2.82,2.82 0 0 1 3.77,5.05 2.63,2.63 0 0 1 6.37,2.39 Z m 0.29,0.8 -1.5,2.4 h 0.9 v 1.8 l 1.5,-2.4 h -0.9 z"
     id="path2"
     inkscape:connector-curvature="0"
     style="fill:#a02c2c" />
</svg>
